X:2
T:The Lumberjack Jig
C:Thornton Rose
R:Jig
M:6/8
L:1/8
Q:1/4=160
K:D
A | d2 e fed | B2 B B2 B | c2 c Bcc | d2 d d2 :|
A | d2 d f2 d | B2 B e2 d | cAA B2 c | d2 A d2 d | f2 d B2 e |
e2 d cAA | f2 e d2 :|
